bolt.svg

<svg fill="currentColor" viewBox="0 0 24 24"><path d="M14 17.7V21h-4v-.7zM17 3H7v3h10zm-2 4-1 .7V7h-4v3.3L9 11v1l6-3.9zm0 4-1 .7v-2l-4 2.7v2L9 15v1l6-3.9zm0 4-1 .7v-2l-4 2.7v2L9 19v1l6-3.9z"/></svg>

<svg  viewBox="0 0 24 24" fill="currentColor"><path  d="M14,17.7V21H10V20.3L14,17.7M17,3H7V6H17V3M15,7L14,7.7V7H10V10.3L9,11V12L15,8.1V7M15,11L14,11.7V9.7L10,12.4V14.4L9,15V16L15,12.1V11M15,15L14,15.7V13.7L10,16.4V18.4L9,19V20L15,16.1V15Z"/></svg>
